storage/app/icons/phosphoricons/duotone/check-square-offset-duotone.svg

<svg xmlns="http://www.w3.org/2000/svg" fill="currentColor" viewBox="0 0 256 256"><path d="M216 48v160a8 8 0 0 1-8 8H64l-24-24V48a8 8 0 0 1 8-8h160a8 8 0 0 1 8 8" opacity=".2"/><path d="M224 48v160a16 16 0 0 1-16 16h-72a8 8 0 0 1 0-16h72V48H48v96a8 8 0 0 1-16 0V48a16 16 0 0 1 16-16h160a16 16 0 0 1 16 16m-98.34 106.34a8 8 0 0 0-11.32 0L64 204.69l-18.34-18.35a8 8 0 0 0-11.32 11.32l24 24a8 8 0 0 0 11.32 0l56-56a8 8 0 0 0 0-11.32"/></svg>

<svg xmlns="http://www.w3.org/2000/svg" viewBox="0 0 256 256" fill="currentColor"><path d="M216,48V208a8,8,0,0,1-8,8H64L40,192V48a8,8,0,0,1,8-8H208A8,8,0,0,1,216,48Z" opacity="0.2"/><path d="M224,48V208a16,16,0,0,1-16,16H136a8,8,0,0,1,0-16h72V48H48v96a8,8,0,0,1-16,0V48A16,16,0,0,1,48,32H208A16,16,0,0,1,224,48ZM125.66,154.34a8,8,0,0,0-11.32,0L64,204.69,45.66,186.34a8,8,0,0,0-11.32,11.32l24,24a8,8,0,0,0,11.32,0l56-56A8,8,0,0,0,125.66,154.34Z"/></svg>
